assets/Manual wheelchair/Flat/manual_wheelchair_flat.svg

<svg width="32" height="32" viewBox="0 0 32 32" fill="none" xmlns="http://www.w3.org/2000/svg">
<path d="M11.5813 15.1863C12.0307 15.5073 12.1348 16.1318 11.8138 16.5813L6.81375 23.5813C6.49274 24.0307 5.86819 24.1348 5.41878 23.8138C4.96937 23.4927 4.86527 22.8682 5.18628 22.4188L10.1863 15.4188C10.5073 14.9694 11.1318 14.8653 11.5813 15.1863Z" fill="#CA0B4A"/>
<path d="M22.96 14.21H9.99998V13.16C9.99998 11.97 10.97 11 12.16 11H22.96V14.21ZM11 29C12.3807 29 13.5 27.8807 13.5 26.5C13.5 25.1193 12.3807 24 11 24C9.61927 24 8.49998 25.1193 8.49998 26.5C8.49998 27.8807 9.61927 29 11 29ZM4.70755 20.2924C4.31677 19.9016 3.68319 19.9016 3.29241 20.2924C2.90163 20.6832 2.90163 21.3168 3.29241 21.7075L5.29241 23.7075C5.68319 24.0983 6.31677 24.0983 6.70755 23.7075C7.09832 23.3168 7.09832 22.6832 6.70755 22.2924L4.70755 20.2924Z" fill="#1C1C1C"/>
<path d="M11 19C11.5523 19 12 19.4477 12 20V26C12 26.5523 11.5523 27 11 27C10.4477 27 10 26.5523 10 26V20C10 19.4477 10.4477 19 11 19Z" fill="#9B9B9B"/>
<path d="M25.9615 2.27473C26.1132 1.7437 25.8057 1.19021 25.2747 1.03849C24.7437 0.886765 24.1902 1.19426 24.0385 1.72529L22.2457 8H15.17C13.4177 8 12 9.41772 12 11.17V13H11C10.4477 13 10 13.4477 10 14V20C10 20.294 10.1293 20.573 10.3536 20.763C10.5757 20.9512 10.8686 21.0331 11.1558 20.9878L11.1604 20.9872C11.169 20.9861 11.1866 20.984 11.212 20.9819C11.2632 20.9776 11.3429 20.9735 11.441 20.9762C11.6435 20.9818 11.8881 21.0159 12.1154 21.1106C12.3312 21.2005 12.531 21.3436 12.6858 21.5887C12.8439 21.8391 13 22.2677 13 23C13 23.5523 13.4477 24 14 24H23C23.5523 24 24 23.5523 24 23V9.14204L24.0005 9.13817L25.9615 2.27473ZM22 10V13H14V11.17C14 10.5223 14.5223 10 15.17 10H22ZM12 15H22V22H14.9205C14.8234 21.4279 14.6391 20.9362 14.3767 20.5207C13.969 19.8751 13.4188 19.487 12.8846 19.2644C12.5748 19.1353 12.271 19.0618 12 19.0212V15Z" fill="#F92F60"/>
<path d="M25 1C24.4477 1 24 1.44772 24 2C24 2.55228 24.4477 3 25 3H29C29.5523 3 30 2.55228 30 2C30 1.44772 29.5523 1 29 1H25Z" fill="#1C1C1C"/>
<path d="M15.5 21.5C15.5 17.36 18.86 14 23 14C27.15 14 30.5 17.36 30.5 21.5C30.5 25.64 27.15 29 23 29C18.86 29 15.5 25.64 15.5 21.5Z" fill="#1C1C1C"/>
<path d="M22.99 16C19.96 16 17.49 18.46 17.49 21.5C17.49 24.54 19.96 27 22.99 27C26.03 27 28.49 24.54 28.49 21.5C28.49 18.46 26.03 16 22.99 16Z" fill="#9B9B9B"/>
<path d="M27.5 21.5C27.5 23.9853 25.4853 26 23 26C20.5147 26 18.5 23.9853 18.5 21.5C18.5 19.0147 20.5147 17 23 17C25.4853 17 27.5 19.0147 27.5 21.5Z" fill="#D3D3D3"/>
<path d="M22.99 23C23.8184 23 24.49 22.3284 24.49 21.5C24.49 20.6716 23.8184 20 22.99 20C22.1616 20 21.49 20.6716 21.49 21.5C21.49 22.3284 22.1616 23 22.99 23Z" fill="#212121"/>
</svg>

<svg xmlns="http://www.w3.org/2000/svg" width="32" height="32" fill="none"><path fill="#CA0B4A" d="M11.581 15.186a1 1 0 0 1 .233 1.395l-5 7a1 1 0 0 1-1.628-1.162l5-7a1 1 0 0 1 1.395-.233Z"/><path fill="#1C1C1C" d="M22.96 14.21H10v-1.05c0-1.19.97-2.16 2.16-2.16h10.8v3.21ZM11 29a2.5 2.5 0 1 0 0-5 2.5 2.5 0 0 0 0 5Zm-6.292-8.708a1 1 0 1 0-1.416 1.415l2 2a1 1 0 1 0 1.416-1.415l-2-2Z"/><path fill="#9B9B9B" d="M11 19a1 1 0 0 1 1 1v6a1 1 0 1 1-2 0v-6a1 1 0 0 1 1-1Z"/><path fill="#F92F60" d="M25.962 2.275a1 1 0 0 0-1.924-.55L22.246 8H15.17A3.168 3.168 0 0 0 12 11.17V13h-1a1 1 0 0 0-1 1v6a1 1 0 0 0 1.156.988h.004a2.094 2.094 0 0 1 .955.123c.216.09.416.233.57.478.159.25.315.679.315 1.411a1 1 0 0 0 1 1h9a1 1 0 0 0 1-1V9.138l1.962-6.863ZM22 10v3h-8v-1.83c0-.648.522-1.17 1.17-1.17H22Zm-10 5h10v7h-7.08a3.99 3.99 0 0 0-.543-1.48 3.193 3.193 0 0 0-1.492-1.256 3.743 3.743 0 0 0-.885-.243V15Z"/><path fill="#1C1C1C" d="M25 1a1 1 0 1 0 0 2h4a1 1 0 1 0 0-2h-4ZM15.5 21.5c0-4.14 3.36-7.5 7.5-7.5 4.15 0 7.5 3.36 7.5 7.5 0 4.14-3.35 7.5-7.5 7.5-4.14 0-7.5-3.36-7.5-7.5Z"/><path fill="#9B9B9B" d="M22.99 16c-3.03 0-5.5 2.46-5.5 5.5s2.47 5.5 5.5 5.5c3.04 0 5.5-2.46 5.5-5.5s-2.46-5.5-5.5-5.5Z"/><path fill="#D3D3D3" d="M27.5 21.5a4.5 4.5 0 1 1-9 0 4.5 4.5 0 0 1 9 0Z"/><path fill="#212121" d="M22.99 23a1.5 1.5 0 1 0 0-3 1.5 1.5 0 0 0 0 3Z"/></svg>
